humanity-icon-theme/Humanity/actions/16/help-about.svg

<?xml version="1.0" encoding="UTF-8" standalone="no"?>
<!-- Created with Inkscape (http://www.inkscape.org/) -->

<svg
   xmlns:dc="http://purl.org/dc/elements/1.1/"
   xmlns:cc="http://creativecommons.org/ns#"
   xmlns:rdf="http://www.w3.org/1999/02/22-rdf-syntax-ns#"
   xmlns:svg="http://www.w3.org/2000/svg"
   xmlns="http://www.w3.org/2000/svg"
   xmlns:xlink="http://www.w3.org/1999/xlink"
   xmlns:sodipodi="http://sodipodi.sourceforge.net/DTD/sodipodi-0.dtd"
   xmlns:inkscape="http://www.inkscape.org/namespaces/inkscape"
   width="16px"
   height="16px"
   id="svg3928"
   version="1.1"
   inkscape:version="0.48.0 r9654"
   sodipodi:docname="help-about.svg">
  <defs
     id="defs3930">
    <linearGradient
       inkscape:collect="always"
       xlink:href="#linearGradient3881"
       id="linearGradient3677"
       gradientUnits="userSpaceOnUse"
       gradientTransform="matrix(0.55048262,0,0,0.57815823,-3.8262247,-5.2762276)"
       x1="24.046366"
       y1="11.673002"
       x2="24.046366"
       y2="34.713669" />
    <linearGradient
       id="linearGradient3881">
      <stop
         offset="0"
         style="stop-color:#ffffff;stop-opacity:1;"
         id="stop3883" />
      <stop
         id="stop3885"
         style="stop-color:#ffffff;stop-opacity:0.23529412;"
         offset="0.33380178" />
      <stop
         offset="0.67927718"
         style="stop-color:#ffffff;stop-opacity:0.15686275;"
         id="stop3887" />
      <stop
         offset="1"
         style="stop-color:#ffffff;stop-opacity:0.39215687;"
         id="stop3889" />
    </linearGradient>
    <linearGradient
       inkscape:collect="always"
       xlink:href="#linearGradient8265-821-176-38-919-66-249"
       id="linearGradient3674"
       gradientUnits="userSpaceOnUse"
       gradientTransform="matrix(0.4893617,0,0,0.4893617,1.7131795,22.728095)"
       x1="11.566265"
       y1="22.292103"
       x2="15.214532"
       y2="33.95525" />
    <linearGradient
       id="linearGradient8265-821-176-38-919-66-249">
      <stop
         id="stop2687"
         style="stop-color:#ffffff;stop-opacity:0.27450982"
         offset="0" />
      <stop
         id="stop2689"
         style="stop-color:#ffffff;stop-opacity:0"
         offset="1" />
    </linearGradient>
    <linearGradient
       id="linearGradient3846">
      <stop
         id="stop3848"
         style="stop-color:#fff3cb;stop-opacity:1"
         offset="0" />
      <stop
         id="stop3850"
         style="stop-color:#fdde76;stop-opacity:1"
         offset="0.26238" />
      <stop
         id="stop3852"
         style="stop-color:#f9c440;stop-opacity:1"
         offset="0.66093999" />
      <stop
         id="stop3854"
         style="stop-color:#e48b20;stop-opacity:1"
         offset="1" />
    </linearGradient>
    <linearGradient
       id="linearGradient3856">
      <stop
         id="stop3858"
         style="stop-color:#b67926;stop-opacity:1"
         offset="0" />
      <stop
         id="stop3860"
         style="stop-color:#eab41a;stop-opacity:1"
         offset="1" />
    </linearGradient>
    <radialGradient
       r="13.931416"
       fy="25.625349"
       fx="13.138569"
       cy="25.625349"
       cx="13.138569"
       gradientTransform="matrix(0,0.92614711,-1.0546317,0,32.402583,-9.3345932)"
       gradientUnits="userSpaceOnUse"
       id="radialGradient3924"
       xlink:href="#linearGradient3846"
       inkscape:collect="always" />
    <linearGradient
       y2="9.5799999"
       x2="21.483376"
       y1="36.255058"
       x1="21.483376"
       gradientTransform="matrix(0.55048262,0,0,0.57815823,-3.8262247,-5.2762279)"
       gradientUnits="userSpaceOnUse"
       id="linearGradient3926"
       xlink:href="#linearGradient3856"
       inkscape:collect="always" />
  </defs>
  <sodipodi:namedview
     id="base"
     pagecolor="#ffffff"
     bordercolor="#666666"
     borderopacity="1.0"
     inkscape:pageopacity="0.0"
     inkscape:pageshadow="2"
     inkscape:zoom="22.197802"
     inkscape:cx="8"
     inkscape:cy="8"
     inkscape:current-layer="layer1"
     showgrid="true"
     inkscape:grid-bbox="true"
     inkscape:document-units="px"
     inkscape:window-width="453"
     inkscape:window-height="440"
     inkscape:window-x="413"
     inkscape:window-y="192"
     inkscape:window-maximized="0" />
  <metadata
     id="metadata3933">
    <rdf:RDF>
      <cc:Work
         rdf:about="">
        <dc:format>image/svg+xml</dc:format>
        <dc:type
           rdf:resource="http://purl.org/dc/dcmitype/StillImage" />
        <dc:title></dc:title>
      </cc:Work>
    </rdf:RDF>
  </metadata>
  <g
     id="layer1"
     inkscape:label="Layer 1"
     inkscape:groupmode="layer">
    <path
       inkscape:connector-curvature="0"
       style="fill:url(#radialGradient3924);fill-opacity:1;fill-rule:nonzero;stroke:url(#linearGradient3926);stroke-width:0.99227136;stroke-linecap:butt;stroke-linejoin:round;stroke-miterlimit:4;stroke-opacity:1;stroke-dasharray:none;stroke-dashoffset:0;marker:none;visibility:visible;display:inline;overflow:visible"
       id="path1307"
       d="m 8.0000006,0.49613568 c 0.5064396,0 2.1391894,4.28357812 2.5489094,4.59622212 0.409717,0.3126432 4.793178,0.6198528 4.949676,1.125721 C 15.655085,6.7239468 12.28072,9.6785531 12.124222,10.18442 11.967724,10.690288 13.409718,15.163733 13,15.476376 12.590282,15.789021 8.5064402,13.33149 7.9999999,13.33149 7.4935604,13.33149 3.4097187,15.789021 3,15.476376 2.5902818,15.163733 4.0322763,10.690287 3.8757779,10.18442 3.7192794,9.6785531 0.34491544,6.7239461 0.50141397,6.218078 0.65791242,5.7122106 5.0413721,5.405001 5.4510908,5.0923578 5.8608088,4.7797138 7.4935611,0.49613568 8.0000006,0.49613568 z"
       sodipodi:nodetypes="csssssssssc" />
    <path
       sodipodi:type="inkscape:offset"
       inkscape:radius="-0.14190589"
       inkscape:original="M 11.96875 26.09375 C 11.51172 26.787229 10.288988 28.722915 8.9375 31.90625 A 0.43670935 0.43670935 0 0 1 8.59375 32.1875 C 6.4582826 32.535711 3.7845647 32.904406 2.03125 33.34375 C 3.1314282 34.66265 4.424744 35.873706 5.65625 37.125 L 20.8125 34.40625 C 21.165744 34.052437 21.509676 33.708835 21.875 33.34375 C 19.823518 32.836264 17.50926 32.535515 15.375 32.1875 A 0.43670935 0.43670935 0 0 1 15.03125 31.9375 C 13.991778 29.524229 12.448328 26.900469 11.96875 26.09375 z "
       style="opacity:0.8;fill:url(#linearGradient3674);fill-opacity:1;fill-rule:nonzero;stroke:none;stroke-width:1;marker:none;visibility:visible;display:inline;overflow:visible;enable-background:accumulate"
       id="path3672"
       d="m 11.96875,26.375 c -0.506596,0.779667 -1.63252,2.593568 -2.90625,5.59375 A 0.14192008,0.14192008 0 0 1 9.03125,32 0.14192008,0.14192008 0 0 1 9,32.03125 a 0.14192008,0.14192008 0 0 1 -0.03125,0 0.14192008,0.14192008 0 0 1 -0.03125,0.03125 0.14192008,0.14192008 0 0 1 -0.03125,-0.03125 0.14192008,0.14192008 0 0 1 -0.03125,0 A 0.14192008,0.14192008 0 0 1 8.84375,32 0.14192008,0.14192008 0 0 1 8.8125,31.96875 a 0.14192008,0.14192008 0 0 1 0,-0.03125 0.14192008,0.14192008 0 0 1 -0.03125,0 c 0.00461,-0.0064 -0.035912,0.0063 -0.03125,0 0.00522,-0.0059 -0.00527,0.03708 0,0.03125 0.00556,-0.0056 -0.036852,0.0055 -0.03125,0 0.00608,-0.005 -0.00612,0.03618 0,0.03125 0.00629,-0.0047 -0.037574,0.0047 -0.03125,0 0.00682,-0.0039 -0.038107,0.0038 -0.03125,0 0.00692,-0.0037 -0.00695,0.03492 0,0.03125 0.00726,-0.003 -0.038533,0.003 -0.03125,0 a 0.14192008,0.14192008 0 0 1 0,0.03125 0.14192008,0.14192008 0 0 1 0.03125,0 0.14192008,0.14192008 0 0 1 0.03125,0.03125 0.14192008,0.14192008 0 0 1 0.03125,0.03125 0.14192008,0.14192008 0 0 1 0,0.03125 0.14192008,0.14192008 0 0 1 0,0.03125 0.14192008,0.14192008 0 0 1 0,0.03125 0.14192008,0.14192008 0 0 1 0,0.03125 0.14192008,0.14192008 0 0 1 -0.03125,0.03125 0.14192008,0.14192008 0 0 1 -0.03125,0.03125 0.14192008,0.14192008 0 0 1 -0.03125,0 C 6.5674679,32.648003 4.0200464,32.991828 2.28125,33.40625 3.3338095,34.641661 4.546242,35.810257 5.71875,37 L 20.75,34.28125 c 0.0052,-0.0052 0.02606,0.0052 0.03125,0 0.28516,-0.285558 0.552815,-0.584263 0.84375,-0.875 -1.985656,-0.473093 -4.21957,-0.75757 -6.28125,-1.09375 a 0.14192008,0.14192008 0 0 1 -0.03125,0 A 0.14192008,0.14192008 0 0 1 15.28125,32.28125 0.14192008,0.14192008 0 0 1 15.25,32.25 a 0.14192008,0.14192008 0 0 1 0,-0.03125 0.14192008,0.14192008 0 0 1 0,-0.03125 0.14192008,0.14192008 0 0 1 0,-0.03125 0.14192008,0.14192008 0 0 1 0,-0.03125 0.14192008,0.14192008 0 0 1 0.03125,-0.03125 0.14192008,0.14192008 0 0 1 0.03125,-0.03125 0.14192008,0.14192008 0 0 1 0.03125,0 0.14192008,0.14192008 0 0 1 0,-0.03125 c 0.0075,0.0027 -0.0387,-0.0027 -0.03125,0 0.0071,0.0035 -0.03835,-0.0035 -0.03125,0 0.007,0.0037 -0.007,-0.03496 0,-0.03125 0.0066,0.0044 -0.03785,-0.0044 -0.03125,0 0.0062,0.0049 -0.0062,-0.03622 0,-0.03125 0.006,0.0052 -0.03724,-0.0052 -0.03125,0 0.0054,0.0058 -0.0053,-0.03713 0,-0.03125 0.0052,0.006 -0.03638,-0.006 -0.03125,0 0.0045,0.0065 -0.0045,-0.0378 0,-0.03125 0.004,0.0069 -0.0352,-0.0069 -0.03125,0 0.0037,0.007 -0.0037,-0.03828 0,-0.03125 l -0.125,0.0625 -0.125,0.0625 c -0.985076,-2.286983 -2.388794,-4.698127 -2.9375,-5.625 z"
       transform="matrix(0.71439082,0,0,0.70011588,-0.57240798,-16.954765)" />
    <path
       inkscape:connector-curvature="0"
       style="opacity:0.8;fill:none;stroke:url(#linearGradient3677);stroke-width:0.99227136;stroke-linecap:butt;stroke-linejoin:round;stroke-miterlimit:4;stroke-opacity:1;stroke-dasharray:none;stroke-dashoffset:0;marker:none;visibility:visible;display:inline;overflow:visible"
       d="M 8,2.3125003 C 7.4204974,3.4092238 6.9588891,4.5689462 6.3425158,5.6446934 5.906923,6.2233231 5.14082,6.208774 4.4979816,6.3453057 3.6988865,6.4940441 2.8938979,6.607737 2.09375,6.7500003 c 0.8321477,1.0057613 1.9042251,1.803058 2.6553809,2.8730975 0.2931609,0.5612752 0.086735,1.1940262 0.048954,1.7875722 -0.1300362,0.873671 -0.7822554,2.011403 -0.8721349,2.890749 1.1003565,-0.559851 2.6237664,-1.531888 3.7910708,-1.94011 0.6246409,-0.12796 1.1682081,0.254232 1.7115393,0.49593 0.7264099,0.38268 1.7399469,0.939694 2.4653779,1.324105 -0.123973,-1.302273 -0.773372,-2.733611 -0.799425,-4.042542 0.09173,-0.7298892 0.734153,-1.1887208 1.185876,-1.7078873 C 12.836872,7.884812 13.396785,7.3411772 13.90625,6.7500003 12.695236,6.5344179 11.470554,6.3762266 10.271483,6.1040109 9.5203883,5.8103558 9.33382,4.9605762 8.9786043,4.3239545 8.6518684,3.653685 8.3459188,2.9733088 8,2.3125003 z"
       id="path2894"
       sodipodi:nodetypes="cccccccccccccccc" />
  </g>
</svg>

<?xml version="1.0" encoding="UTF-8" standalone="no"?>
<!-- Created with Inkscape (http://www.inkscape.org/) -->
<svg id="svg2876" xmlns:rdf="http://www.w3.org/1999/02/22-rdf-syntax-ns#" xmlns="http://www.w3.org/2000/svg" height="16" width="16" version="1.1" xmlns:cc="http://creativecommons.org/ns#" xmlns:xlink="http://www.w3.org/1999/xlink" xmlns:dc="http://purl.org/dc/elements/1.1/">
 <defs id="defs2878">
  <radialGradient id="radialGradient2872" gradientUnits="userSpaceOnUse" cx="13.139" cy="25.625" r="13.931" gradientTransform="matrix(0 .92615 -1.0546 0 32.403 -9.3346)">
   <stop id="stop3692" style="stop-color:#ffeb9f" offset="0"/>
   <stop id="stop3694" style="stop-color:#ffd57e" offset=".26238"/>
   <stop id="stop3696" style="stop-color:#ffbc43" offset=".66094"/>
   <stop id="stop3698" style="stop-color:#ff921a" offset="1"/>
  </radialGradient>
  <linearGradient id="linearGradient2874" y2="9.58" gradientUnits="userSpaceOnUse" y1="36.255" gradientTransform="matrix(.55048 0 0 .57816 -3.8262 -5.2762)" x2="21.483" x1="21.483">
   <stop id="stop3605" style="stop-color:#a7651c" offset="0"/>
   <stop id="stop3607" style="stop-color:#c8a700" offset="1"/>
  </linearGradient>
  <linearGradient id="linearGradient3674" y2="33.955" gradientUnits="userSpaceOnUse" x2="15.215" gradientTransform="matrix(.48936 0 0 .48936 1.7132 22.728)" y1="22.292" x1="11.566">
   <stop id="stop2687" style="stop-color:#fff;stop-opacity:.27451" offset="0"/>
   <stop id="stop2689" style="stop-color:#fff;stop-opacity:0" offset="1"/>
  </linearGradient>
  <linearGradient id="linearGradient3677" y2="34.714" gradientUnits="userSpaceOnUse" x2="24.046" gradientTransform="matrix(.55048 0 0 .57816 -3.8262 -5.2762)" y1="11.673" x1="24.046">
   <stop id="stop3644" style="stop-color:#fff" offset="0"/>
   <stop id="stop3646" style="stop-color:#fff;stop-opacity:0" offset="1"/>
  </linearGradient>
 </defs>
 <metadata id="metadata2881">
  <rdf:RDF>
   <cc:Work rdf:about="">
    <dc:format>image/svg+xml</dc:format>
    <dc:type rdf:resource="http://purl.org/dc/dcmitype/StillImage"/>
    <dc:title/>
   </cc:Work>
  </rdf:RDF>
 </metadata>
 <g id="layer1">
  <path id="path1307" style="stroke-linejoin:round;stroke:url(#linearGradient2874);stroke-width:.99227;fill:url(#radialGradient2872)" d="m8 0.49614c0.50644 0 2.1392 4.2836 2.5489 4.5962 0.40972 0.31264 4.7932 0.61985 4.9497 1.1257 0.156 0.5059-3.218 3.4606-3.375 3.966-0.156 0.506 1.286 4.98 0.876 5.292-0.41 0.313-4.4936-2.145-5-2.145s-4.5903 2.458-5 2.145c-0.4097-0.312 1.0323-4.786 0.8758-5.292-0.1565-0.5054-3.5309-3.4601-3.3744-3.9659 0.15651-0.5059 4.54-0.8131 4.9497-1.1257 0.4097-0.3127 2.0425-4.5963 2.5489-4.5963z"/>
  <path id="path3672" style="opacity:.8;fill:url(#linearGradient3674)" d="m11.969 26.375c-0.5066 0.77967-1.6325 2.5936-2.9062 5.5938a0.14192 0.14192 0 0 1 -0.0316 0.031 0.14192 0.14192 0 0 1 -0.0312 0.031 0.14192 0.14192 0 0 1 -0.03125 0 0.14192 0.14192 0 0 1 -0.03125 0.03125 0.14192 0.14192 0 0 1 -0.03125 -0.03125 0.14192 0.14192 0 0 1 -0.03125 0 0.14192 0.14192 0 0 1 -0.0312 -0.031 0.14192 0.14192 0 0 1 -0.0313 -0.031 0.14192 0.14192 0 0 1 0 -0.03125 0.14192 0.14192 0 0 1 -0.03125 0c0.00461-0.0064-0.035912 0.0063-0.03125 0 0.00522-0.0059-0.00527 0.03708 0 0.03125 0.00556-0.0056-0.036852 0.0055-0.03125 0 0.00608-0.005-0.00612 0.03618 0 0.03125 0.00629-0.0047-0.037574 0.0047-0.03125 0 0.00682-0.0039-0.038107 0.0038-0.03125 0 0.00692-0.0037-0.00695 0.03492 0 0.03125 0.00726-0.003-0.038533 0.003-0.03125 0a0.14192 0.14192 0 0 1 0 0.03125 0.14192 0.14192 0 0 1 0.03125 0 0.14192 0.14192 0 0 1 0.03125 0.03125 0.14192 0.14192 0 0 1 0.03125 0.03125 0.14192 0.14192 0 0 1 0 0.03125 0.14192 0.14192 0 0 1 0 0.03125 0.14192 0.14192 0 0 1 0 0.03125 0.14192 0.14192 0 0 1 0 0.03125 0.14192 0.14192 0 0 1 -0.03125 0.03125 0.14192 0.14192 0 0 1 -0.03125 0.03125 0.14192 0.14192 0 0 1 -0.03125 0c-2.0575 0.335-4.605 0.679-6.3438 1.093 1.0526 1.236 2.265 2.404 3.4376 3.594l15.031-2.719c0.0052-0.0052 0.02606 0.0052 0.03125 0 0.28516-0.28556 0.55282-0.58426 0.84375-0.875-1.9857-0.47309-4.2196-0.75757-6.2812-1.0938a0.14192 0.14192 0 0 1 -0.03125 0 0.14192 0.14192 0 0 1 -0.032 -0.031 0.14192 0.14192 0 0 1 -0.031 -0.031 0.14192 0.14192 0 0 1 0 -0.03125 0.14192 0.14192 0 0 1 0 -0.03125 0.14192 0.14192 0 0 1 0 -0.03125 0.14192 0.14192 0 0 1 0 -0.03125 0.14192 0.14192 0 0 1 0.03125 -0.03125 0.14192 0.14192 0 0 1 0.03125 -0.03125 0.14192 0.14192 0 0 1 0.03125 0 0.14192 0.14192 0 0 1 0 -0.03125c0.0075 0.0027-0.0387-0.0027-0.03125 0 0.0071 0.0035-0.03835-0.0035-0.03125 0 0.007 0.0037-0.007-0.03496 0-0.03125 0.0066 0.0044-0.03785-0.0044-0.03125 0 0.0062 0.0049-0.0062-0.03622 0-0.03125 0.006 0.0052-0.03724-0.0052-0.03125 0 0.0054 0.0058-0.0053-0.03713 0-0.03125 0.0052 0.006-0.03638-0.006-0.03125 0 0.0045 0.0065-0.0045-0.0378 0-0.03125 0.004 0.0069-0.0352-0.0069-0.03125 0 0.0037 0.007-0.0037-0.03828 0-0.03125l-0.125 0.0625-0.125 0.0625c-0.98508-2.287-2.3888-4.6981-2.9375-5.625z" transform="matrix(.71439 0 0 .70012 -.57241 -16.955)"/>
  <path id="path2894" style="opacity:.4;stroke-linejoin:round;stroke:url(#linearGradient3677);stroke-width:.99227;fill:none" d="m8 2.3125c-0.5795 1.0967-1.0411 2.2564-1.6575 3.3322-0.4356 0.5786-1.2017 0.5641-1.8445 0.7006-0.7991 0.1487-1.6041 0.2624-2.4042 0.4047 0.83215 1.0058 1.9042 1.8031 2.6554 2.8731 0.29316 0.56128 0.086735 1.194 0.048954 1.7876-0.13004 0.87367-0.78226 2.0114-0.87213 2.8907 1.1004-0.55985 2.6238-1.5319 3.7911-1.9401 0.62464-0.12796 1.1682 0.25423 1.7115 0.49593 0.72641 0.38268 1.7399 0.93969 2.4654 1.3241-0.12397-1.3023-0.77337-2.7336-0.79942-4.0425 0.09173-0.72989 0.73415-1.1887 1.1859-1.7079 0.556-0.5461 1.116-1.0897 1.625-1.6809-1.211-0.2156-2.435-0.3738-3.635-0.646-0.7506-0.2936-0.9372-1.1434-1.2924-1.78-0.3267-0.6703-0.6327-1.3507-0.9786-2.0115z"/>
 </g>
</svg>
